X: 4
T: Farewell To Uist
R: waltz
M: 3/4
L: 1/8
K: Emin
eed| B3A AG | AG E3G | A2 A3B | e3e de |
 g3a ag | ed B2 BD| G3 EED | E3e ed |
 B3d AG | AGE3 G| A2 A3B| e3e de|
 g3a ag|ed B2 BD| G3B BA | A4a2 |
 a4b b| age2 eB|d3e g2|g3 gag|
 de ga ed|AB de AG|EG2 AED| E4:|
 
 (I think this is the right repeat patern)
 eed| B3A AG | AG E3G | A3 cB2 | e3e de |
 g3a ag | ed B2 BA| G3 AAG | E3e ed |
 
 B3d AG | AGE3 G| A3 cB2| e3e de|
 g3a ag|ed B2 BA| G3 Bde | A4a2 |
 
 a4b b| age2 eB|d3e g2|g3 gag|
 de ga ed|AB de AG|GG2 AED| E3 eed|
 
 B3d AG | AGE3 G| A3 cB2| e3e de|
 g3a ag|ed B2 BE| G3 Bde | A3 :|